icons/behance-filled.svg

<svg width="256" height="256" viewBox="0 0 256 256" fill="none" xmlns="http://www.w3.org/2000/svg">
<path d="M196 0H60C26.8629 0 0 26.8629 0 60V196C0 229.137 26.8629 256 60 256H196C229.137 256 256 229.137 256 196V60C256 26.8629 229.137 0 196 0Z" fill="#000B1D"/>
<path d="M47 178.3V76.1C47 75.1 47.3 74.6 48 74.5C49.8 74.4 52.6 74.3 56.4 74.3C60.2 74.3 64.2 74.2 68.6 74.1C73 74 77 74 80.7 74C89.5 74 96.5 75 101.7 76.9C106.199 78.3985 110.301 80.894 113.7 84.2C116.289 86.8034 118.21 89.994 119.3 93.5C120.218 96.3778 120.691 99.3793 120.7 102.4C120.771 105.607 120.228 108.797 119.1 111.8C118.22 114.283 116.898 116.586 115.2 118.6C113.994 120.158 112.541 121.509 110.9 122.6C113.191 123.822 115.338 125.298 117.3 127C119.823 129.231 121.865 131.953 123.3 135C125.105 138.879 125.995 143.122 125.9 147.4C125.987 153.533 124.093 159.53 120.5 164.5C116.536 169.733 111.158 173.724 105 176C98.3 178.7 90.3 180.1 80.9 180.1H70.3C66.9 180.1 63.8 180.1 61 180C58.2 179.9 55.7 179.9 53.6 179.8C51.5 179.7 49.7 179.7 48.2 179.7C47.4 179.7 47 179.2 47 178.3ZM68.7 93.2V115.6H79.6C82.5 115.6 85.3 115.7 88.1 115.8C90.1149 115.801 92.1247 116.002 94.1 116.4C95.5063 115.18 96.6904 113.725 97.6 112.1C98.5584 110.105 99.0378 107.913 99 105.7C99.1095 103.166 98.3705 100.667 96.9 98.6C95.3304 96.6908 93.2491 95.2685 90.9 94.5C87.6312 93.49 84.2202 93.0172 80.8 93.1H76.1C74.7 93.1 73.4 93.1 72.3 93.2C71.2 93.1 70 93.2 68.7 93.2ZM68.7 134.5V161.1C70.5 161.2 72.3 161.3 74.2 161.3C76.1 161.3 78.2 161.4 80.8 161.4C84.7463 161.484 88.6848 161.012 92.5 160C95.4231 159.286 98.0683 157.72 100.1 155.5C101.851 153.361 102.774 150.663 102.7 147.9C102.763 145.215 102.033 142.571 100.6 140.3C99.2 138.2 96.6 136.6 92.9 135.6C91.4525 135.237 89.9827 134.97 88.5 134.8C86.5397 134.6 84.5705 134.5 82.6 134.5H68.7Z" fill="white"/>
<path d="M190.6 145.7H158.9C159.282 148.73 160.342 151.635 162 154.2C163.767 156.895 166.313 158.988 169.3 160.2C173.355 161.867 177.718 162.651 182.1 162.5C185.586 162.503 189.066 162.202 192.5 161.6C195.727 161.018 198.88 160.079 201.9 158.8C202.4 158.4 202.7 158.6 202.7 159.6V174.9C202.682 175.307 202.615 175.71 202.5 176.1C202.319 176.381 202.081 176.619 201.8 176.8C198.453 178.383 194.927 179.558 191.3 180.3C186.622 181.2 181.862 181.602 177.1 181.5C169.5 181.5 163.1 180.3 157.9 178C153.007 175.876 148.688 172.62 145.3 168.5C142.134 164.647 139.786 160.19 138.4 155.4C135.47 145.424 135.609 134.796 138.8 124.9C140.395 119.893 142.941 115.241 146.3 111.2C149.607 107.204 153.733 103.964 158.4 101.7C163.635 99.3003 169.342 98.1043 175.1 98.2C180.432 98.0763 185.726 99.135 190.6 101.3C194.729 103.161 198.336 106.012 201.1 109.6C203.758 113.015 205.789 116.875 207.1 121C208.372 124.941 209.013 129.059 209 133.2C209 135.6 208.9 137.7 208.8 139.6C208.7 141.5 208.5 142.9 208.4 143.8C208.356 144.146 208.192 144.466 207.936 144.704C207.68 144.942 207.349 145.082 207 145.1C206.4 145.1 205.3 145.2 203.7 145.3C201.775 145.519 199.838 145.619 197.9 145.6C195.6 145.6 193.2 145.7 190.6 145.7ZM158.9 130H180C182.6 130 184.5 130 185.7 129.9C186.47 129.887 187.239 129.821 188 129.7V128.7C188.004 127.442 187.801 126.192 187.4 125C186.525 122.264 184.783 119.886 182.438 118.227C180.093 116.567 177.272 115.715 174.4 115.8C171.686 115.648 168.986 116.284 166.626 117.633C164.266 118.982 162.347 120.985 161.1 123.4C159.982 125.453 159.238 127.687 158.9 130Z" fill="white"/>
</svg>

<svg xmlns="http://www.w3.org/2000/svg" width="256" height="256" fill="none"><path fill="#000B1D" d="M196 0H60C26.863 0 0 26.863 0 60v136c0 33.137 26.863 60 60 60h136c33.137 0 60-26.863 60-60V60c0-33.137-26.863-60-60-60"/><path fill="#fff" d="M47 178.3V76.1c0-1 .3-1.5 1-1.6 1.8-.1 4.6-.2 8.4-.2s7.8-.1 12.2-.2S77 74 80.7 74c8.8 0 15.8 1 21 2.9a31.5 31.5 0 0 1 12 7.3 22.8 22.8 0 0 1 5.6 9.3 29.6 29.6 0 0 1 1.4 8.9 25.2 25.2 0 0 1-1.6 9.4 21.9 21.9 0 0 1-3.9 6.8 18.1 18.1 0 0 1-4.3 4 34.7 34.7 0 0 1 6.4 4.4 24.8 24.8 0 0 1 6 8 27.9 27.9 0 0 1 2.6 12.4 28.5 28.5 0 0 1-5.4 17.1A34.4 34.4 0 0 1 105 176c-6.7 2.7-14.7 4.1-24.1 4.1H70.3c-3.4 0-6.5 0-9.3-.1s-5.3-.1-7.4-.2-3.9-.1-5.4-.1c-.8 0-1.2-.5-1.2-1.4m21.7-85.1v22.4h10.9c2.9 0 5.7.1 8.5.2a30.5 30.5 0 0 1 6 .6 16.1 16.1 0 0 0 3.5-4.3 14.2 14.2 0 0 0 1.4-6.4 11.4 11.4 0 0 0-2.1-7.1 13 13 0 0 0-6-4.1 31.6 31.6 0 0 0-10.1-1.4h-4.7c-1.4 0-2.7 0-3.8.1-1.1-.1-2.3 0-3.6 0m0 41.3v26.6c1.8.1 3.6.2 5.5.2s4 .1 6.6.1a42 42 0 0 0 11.7-1.4 15.2 15.2 0 0 0 7.6-4.5 11.5 11.5 0 0 0 2.6-7.6 13.64 13.64 0 0 0-2.1-7.6c-1.4-2.1-4-3.7-7.7-4.7a34 34 0 0 0-4.4-.8c-1.96-.2-3.93-.3-5.9-.3zm121.9 11.2h-31.7a20.35 20.35 0 0 0 3.1 8.5 15.86 15.86 0 0 0 7.3 6 30.9 30.9 0 0 0 12.8 2.3 60 60 0 0 0 10.4-.9 44.2 44.2 0 0 0 9.4-2.8c.5-.4.8-.2.8.8v15.3c-.018.407-.085.81-.2 1.2a2.3 2.3 0 0 1-.7.7 46.2 46.2 0 0 1-10.5 3.5 67.5 67.5 0 0 1-14.2 1.2c-7.6 0-14-1.2-19.2-3.5a33.7 33.7 0 0 1-12.6-9.5 36.7 36.7 0 0 1-6.9-13.1 51.8 51.8 0 0 1 .4-30.5 40.8 40.8 0 0 1 7.5-13.7 36.2 36.2 0 0 1 12.1-9.5 38.54 38.54 0 0 1 16.7-3.5 36.1 36.1 0 0 1 15.5 3.1 27.54 27.54 0 0 1 10.5 8.3 36.6 36.6 0 0 1 6 11.4 39.3 39.3 0 0 1 1.9 12.2c0 2.4-.1 4.5-.2 6.4s-.3 3.3-.4 4.2a1.49 1.49 0 0 1-1.4 1.3c-.6 0-1.7.1-3.3.2a47 47 0 0 1-5.8.3c-2.3 0-4.7.1-7.3.1M158.9 130H180c2.6 0 4.5 0 5.7-.1q1.157-.019 2.3-.2v-1a11.5 11.5 0 0 0-.6-3.7 13.236 13.236 0 0 0-13-9.2 14.08 14.08 0 0 0-13.3 7.6 19.8 19.8 0 0 0-2.2 6.6"/></svg>
